public/icons/icons8-contact.svg

<svg xmlns="http://www.w3.org/2000/svg" xmlns:xlink="http://www.w3.org/1999/xlink" viewBox="0,0,256,256" width="192px" height="192px"><g fill="#5e17eb" fill-rule="nonzero" stroke="none" stroke-width="1" stroke-linecap="butt" stroke-linejoin="miter" stroke-miterlimit="10" stroke-dasharray="" stroke-dashoffset="0" font-family="none" font-weight="none" font-size="none" text-anchor="none" style="mix-blend-mode: normal"><g transform="scale(10.66667,10.66667)"><path d="M19,5h-8l-1.121,-1.121c-0.563,-0.563 -1.326,-0.879 -2.122,-0.879h-3.757c-1.105,0 -2,0.895 -2,2v13c0,1.657 1.343,3 3,3h2c0,-0.552 0.448,-1 1,-1c0.552,0 1,0.448 1,1h6c0,-0.552 0.448,-1 1,-1c0.552,0 1,0.448 1,1h2c1.657,0 3,-1.343 3,-3v-10c0,-1.657 -1.343,-3 -3,-3z" opacity="0.35"></path><circle cx="12" cy="10" r="2"></circle><path d="M14.5,14h-5c-0.828,0 -1.5,0.672 -1.5,1.5c0,0.828 0.672,1.5 1.5,1.5h5c0.828,0 1.5,-0.672 1.5,-1.5c0,-0.828 -0.672,-1.5 -1.5,-1.5z"></path></g></g></svg>

<svg xmlns="http://www.w3.org/2000/svg"  viewBox="0 0 24 24" width="192px" height="192px"><path d="M19,5h-8L9.879,3.879C9.316,3.316,8.553,3,7.757,3H4C2.895,3,2,3.895,2,5v13c0,1.657,1.343,3,3,3h2	c0-0.552,0.448-1,1-1s1,0.448,1,1h6c0-0.552,0.448-1,1-1s1,0.448,1,1h2c1.657,0,3-1.343,3-3V8C22,6.343,20.657,5,19,5z" opacity=".35"/><circle cx="12" cy="10" r="2"/><path d="M14.5,14h-5C8.672,14,8,14.672,8,15.5C8,16.328,8.672,17,9.5,17h5c0.828,0,1.5-0.672,1.5-1.5C16,14.672,15.328,14,14.5,14z"/></svg>
